X:1
T:Title
%%score ( 1 2 ) { 3 | 4 }
L:1/8
Q:1/4=92
M:6/8
K:F
V:1 treble nm="Grand Piano, Soprano"
V:2 treble 
V:3 treble nm="Choir Pad, Message of Mercy, T. Harris"
V:4 bass 
V:1
 [Ac][GB][FA] BA[B,G] | [B,F]3 C3 | [Fc][F=B][Fc] [^Fd]2 [FA] | [GB]6 | %4
w: By~Thoro~Harris * * * * *||||
 [GB][^FA][GB] [EG][ce][Bd] | [_Ad]3 [=Ac]3 | [F=B][FA][FG] [FA]2 [FB] | [Ec]6 | %8
w: ||||
 [EG][_E^F][=EG] [EB]2 [EA] | [CG]3 [CF]3 | [FA][F_A][F=A] [^Fc]2 [FA] | [GB]6 | z3 .B3 | z3 .A3 | %14
w: ||||||
 [D=B][FB][Ec] [Ge]2 [Fd] | .c6 | [A,F]3 [B,E][B,C]>[B,G] | F3 .F3 | [DB]3 [Dd][DF]>[^CG] | [CA]6 | %20
w: ||||||
 [=B,FG]3 [B,FG][CFA][DF=B] | [Ec]2 [Fd] e2- [Be] | [Ae][Ad]A [Gc]2 [F=B] | .[Ed]6 | %24
w: ||||
 [A,F]3 [B,E][B,C]>[B,G] | [A,F]3 [CA]3 | [CA]3 [D_A][DE]>[D=B] | [CA]6 | [^FA]3 [Fd][Fc][FA] | %29
w: |||||
 [Ac]3 [GB]3 | [EA][EB]D [CA]2 [B,G] | [A,CF]6- | [A,CF]3 z3 |] %33
w: ||||
V:2
 z3 .E3 | x6 | x6 | x6 | x6 | x6 | x6 | x6 | x6 | x6 | x6 | x6 | [EG][Ge][ce] e-[De]E | %13
 [CA][Fd][Bd] d-[Ed]F | x6 | E[EG][FA] [GB][FA][CG] | x6 | A,2 C A-[_EA-][EA] | x6 | x6 | x6 | %21
 z3 .G3 | x6 | x6 | x6 | x6 | x6 | x6 | x6 | x6 | x6 | x6 | x6 |] %33
V:3
 CCC DC[K:bass]B, | A,3 A,3 | A,_A,=A, A,[K:treble]DC | D6 | CCC C2 C | B,2 =B, C2 D | DC=B, C2 D | %7
 C6 | B,A,B, D2 C | B,3 A,3 | C=B,C D2 D | D6 | CCC .C3 | C[K:bass]A,G, .A,3 | G,DC =B,A,B, | .C6 | %16
 F,,C,F, G,,E,C, | F,,C,F, F,,C,F, | B,,F,B, B,,F,B, | F,,C,F, .F,,3 | G,,D,G, G,,D,G, | %21
 C,G,=B, C,G,[K:treble]C | C2 D E2 D | .C6 | F,,C,F, G,,E,C, | F,,C,E, F,,C,E, | E,,A,,C, E,=B,E, | %27
 A,,C,E, .A,3 | D,A,C C2 C | G,,D,G, G,,3 | B, .B,2 B, .B,2 | F,B,,A,, F,,3- | F,,3 z3 |] %33
V:4
 F,F,F, C,2 C, | F,3 F,3 | F,F,F, D,2 D, | G,6 | C,C,C, C,2 E, | F,3 F,3 | G,G,G, G,2 G, | C,6 | %8
 C,C,C, C,2 C, | F,3 F,3 | F,F,F, D,2 D, | G,6 | C,C,C, z3 | F,F,F, .F,3 | z G,G, G,2 G, | .C,6 | %16
 z6 | z6 | z6 | z6 | z6 | z2 G, z3 | F,2 F, G,2 G, | .C,6 | z6 | z6 | z3 z ._A,2 | z6 | %28
 z3 [D,A,]2 [D,A,] | z6 | [C,G,] .[C,G,]2 [C,G,] .[C,G,]2 | .F,,3 z3 | z6 |] %33

